X: 3041
T: Up in the Morning Early
%R: air, jig
B: Niel Gow & Sons "Complete Repository" v.3 p.4 #1
Z: 2021 John Chambers <jc:trillian.mit.edu>
N: Bar 14 has a "sorta" crescendo symbol, just transcribed as "cresc." here.
M: 6/8
L: 1/8
Q: "Slow"
K: Gm
% - - - - - - - - - -
V: 1 staves=2
D |\
G2A B2c | ~d>=ef F2F | G>AG d>cB/A/ | G3 d2D |\
G2A B2c | ~d>=ef F2F | G>AG d>cB/A/ | (G3 d2 :|
|: (F//G//A/) |"_Dolce"\
B>cB B2B | c>dc c2c | ~d>ef gfe | (d3 f2)f | !p!B>cB ~c2B |\
c>df Hg2 f/e/ | d>cB A>G^F | (G3 d2) :|
% - - - - - - - - - -
V: 2 clef=bass middle=d
z |\
z2d g2a  | b3 [c'3a3] | [d'3b3] d2D | .G/^F/G/A/B/>c/ d3 |\
zb^f g2a | b3 [c'3a3] | [d'2b2]g b/c'/d'd | (G/B/)(d/g/)(d/B/) G2 :|
|: z |"_dolce"\
dfb dfb | egc' =egc' | [bf6]c'd' e'd'c' | bd'f' b2z |\
!p!d3 e2d | "^cresc."edB He2A | B>AB cdD | (G/B/)(d/g/)(d/B/) G2 :|


